src/assets/svg/nav_logo.svg

<svg width="197" height="40" viewBox="0 0 197 40" fill="none" xmlns="http://www.w3.org/2000/svg">
<path d="M55.81 9.86002H68.14V7.19002H55.81V3.96002H68.14V1.27002H55.81H53V3.96002V7.19002V9.86002V15.75H55.81V9.86002Z" fill="black"/>
<path d="M73.64 14.99C74.81 15.67 76.07 16 77.42 16C78.77 16 80.03 15.66 81.18 14.99C82.35 14.31 83.27 13.4 83.95 12.26C84.64 11.12 84.99 9.87004 84.99 8.52004C84.99 7.17004 84.64 5.92004 83.95 4.78004C83.27 3.64004 82.35 2.73004 81.18 2.05004C80.03 1.37004 78.77 1.04004 77.42 1.04004C76.07 1.04004 74.8 1.38004 73.64 2.05004C72.49 2.73004 71.56 3.64004 70.87 4.78004C70.19 5.92004 69.85 7.17004 69.85 8.52004C69.85 9.87004 70.19 11.12 70.87 12.26C71.56 13.4 72.48 14.31 73.64 14.99ZM73.32 6.16004C73.75 5.44004 74.33 4.88004 75.05 4.46004C75.77 4.03004 76.56 3.82004 77.43 3.82004C78.3 3.82004 79.07 4.03004 79.79 4.46004C80.53 4.87004 81.1 5.44004 81.52 6.16004C81.95 6.88004 82.17 7.66004 82.17 8.52004C82.17 9.38004 81.95 10.16 81.52 10.88C81.1 11.6 80.53 12.17 79.79 12.6C79.07 13.01 78.28 13.22 77.43 13.22C76.58 13.22 75.77 13.01 75.05 12.6C74.33 12.17 73.75 11.6 73.32 10.88C72.9 10.16 72.69 9.38004 72.69 8.52004C72.69 7.66004 72.9 6.88004 73.32 6.16004Z" fill="black"/>
<path d="M89.53 11.49H94.5L99.02 15.75H101.85V14.67L98.2 11.21C98.53 11.1 98.85 10.97 99.17 10.8C99.99 10.34 100.64 9.72002 101.12 8.94002C101.61 8.15002 101.86 7.30002 101.86 6.37002C101.86 5.44002 101.61 4.60002 101.12 3.83002C100.64 3.04002 100 2.42002 99.17 1.97002C98.35 1.50002 97.45 1.27002 96.49 1.27002H86.72V15.75H89.53V11.49ZM89.53 3.96002H96.49C96.95 3.96002 97.38 4.06002 97.79 4.27002C98.21 4.48002 98.54 4.77002 98.78 5.14002C99.03 5.50002 99.15 5.89002 99.15 6.32002C99.15 6.79002 99.03 7.22002 98.78 7.60002C98.54 7.97002 98.2 8.27002 97.79 8.49002C97.39 8.71002 96.95 8.82002 96.49 8.82002H89.53V3.96002Z" fill="black"/>
<path d="M118.72 15.75V13.06H106.39V9.86002H118.72V7.19002H106.39V3.96002H118.72V1.27002H106.39H103.58V3.96002V7.19002V9.86002V13.06V15.75H106.39H118.72Z" fill="black"/>
<path d="M124.94 15.75H131.1C131.91 15.75 132.65 15.56 133.33 15.17C134.02 14.78 134.57 14.27 134.97 13.62C135.37 12.96 135.58 12.24 135.58 11.47C135.58 10.7 135.38 9.99002 134.97 9.34002C134.57 8.68002 134.02 8.15002 133.33 7.77002C132.65 7.38002 131.91 7.19002 131.1 7.19002H124.94C124.48 7.19002 124.08 7.03002 123.75 6.71002C123.42 6.39002 123.25 6.01002 123.25 5.57002C123.25 5.13002 123.41 4.75002 123.75 4.43002C124.08 4.11002 124.48 3.95002 124.94 3.95002H131.08C131.54 3.95002 131.94 4.11002 132.27 4.43002C132.6 4.75002 132.77 5.13002 132.77 5.57002H135.58C135.58 4.78002 135.38 4.07002 134.97 3.42002C134.57 2.76002 134.02 2.23002 133.33 1.85002C132.65 1.46002 131.9 1.27002 131.08 1.27002H124.94C124.12 1.27002 123.36 1.46002 122.67 1.85002C121.99 2.24002 121.45 2.76002 121.05 3.42002C120.65 4.07002 120.45 4.79002 120.45 5.57002C120.45 6.35002 120.65 7.06002 121.05 7.72002C121.45 8.37002 121.99 8.89002 122.67 9.27002C123.36 9.66002 124.12 9.85002 124.94 9.85002H131.1C131.56 9.85002 131.95 10.01 132.27 10.33C132.6 10.63 132.77 11.01 132.77 11.45C132.77 11.89 132.6 12.27 132.27 12.59C131.95 12.91 131.56 13.07 131.1 13.07H124.94C124.48 13.07 124.08 12.91 123.75 12.59C123.42 12.27 123.25 11.89 123.25 11.45H120.44C120.44 12.24 120.64 12.96 121.04 13.62C121.44 14.27 121.98 14.79 122.66 15.17C123.35 15.56 124.11 15.75 124.93 15.75H124.94Z" fill="black"/>
<path d="M140.75 1.27002H137.94V15.75H140.75V1.27002Z" fill="black"/>
<path d="M158.28 16V8.14H151.25V10.62H155.68C155.68 11.5 155.27 12.21 154.45 12.75C153.63 13.27 152.56 13.54 151.25 13.54C150.34 13.54 149.46 13.31 148.59 12.84C147.74 12.36 147.05 11.73 146.51 10.96C145.98 10.17 145.72 9.34 145.73 8.46C145.74 7.51 145.99 6.65 146.46 5.89C146.95 5.13 147.61 4.54 148.45 4.11C149.29 3.68 150.22 3.47 151.24 3.47C152.26 3.47 153.17 3.65 154.09 4.01C155.03 4.35 155.86 4.9 156.6 5.64L158.26 3.67C157.29 2.77 156.2 2.1 154.97 1.64C153.74 1.18 152.5 0.970002 151.23 1C149.77 1 148.42 1.33 147.16 1.99C145.9 2.64 144.91 3.53 144.18 4.68C143.44 5.81 143.08 7.07 143.08 8.44C143.08 9.81 143.45 11.07 144.18 12.23C144.91 13.37 145.9 14.28 147.14 14.96C148.39 15.64 149.76 15.98 151.23 15.99C152.64 15.99 153.88 15.73 154.95 15.2C155.2 15.07 155.44 14.94 155.66 14.79V15.98H158.25L158.28 16Z" fill="black"/>
<path d="M162.81 9.77002H172.33V15.75H175.14V9.77002V7.10002V1.27002H172.33V7.10002H162.81V1.27002H160V7.10002V9.77002V15.75H162.81V9.77002Z" fill="black"/>
<path d="M185.84 1.27002H183.03H176.86V3.96002H183.03V15.75H185.84V3.96002H192V1.27002H185.84Z" fill="black"/>
<path d="M60.58 35.7L54.56 24H53V27.08L59.01 38.75H62.15L68.14 27.08V24H66.58L60.58 35.7Z" fill="black"/>
<path d="M70.41 24V26.74V30.03V32.74V36.01V38.75H73.22H85.55V36.01H73.22V32.74H85.55V30.03H73.22V26.74H85.55V24H73.22H70.41Z" fill="black"/>
<path d="M100.15 34.58L90.6299 24H87.8199V38.75H90.6299V28.15L100.15 38.75H102.96V24H100.15V34.58Z" fill="black"/>
<path d="M111.39 24H105.22V26.74H111.39V38.75H114.2V26.74H120.37V24H114.2H111.39Z" fill="black"/>
<path d="M134.96 31.63C134.96 32.46 134.74 33.23 134.31 33.95C133.89 34.67 133.32 35.24 132.58 35.66C131.84 36.07 131.05 36.27 130.2 36.27C129.35 36.27 128.56 36.07 127.82 35.66C127.08 35.24 126.5 34.67 126.07 33.95C125.65 33.23 125.44 32.46 125.44 31.63V24H122.63V31.63C122.63 32.96 122.97 34.2 123.65 35.34C124.33 36.46 125.24 37.36 126.4 38.02C127.57 38.68 128.84 39.01 130.21 39.01C131.58 39.01 132.84 38.68 134 38.02C135.17 37.36 136.09 36.47 136.77 35.34C137.45 34.2 137.79 32.97 137.79 31.63V24H134.98V31.63H134.96Z" fill="black"/>
<path d="M154.45 31.82C154.94 31.02 155.18 30.15 155.18 29.21C155.18 28.27 154.94 27.41 154.45 26.62C153.97 25.82 153.33 25.19 152.5 24.72C151.68 24.24 150.78 24 149.82 24H140.04V38.75H142.85V34.41H147.83L152.35 38.75H155.18V37.65L151.53 34.13C151.86 34.02 152.19 33.89 152.5 33.71C153.32 33.25 153.97 32.61 154.45 31.81V31.82ZM152.11 30.45C151.87 30.83 151.53 31.13 151.12 31.36C150.72 31.58 150.28 31.7 149.82 31.7H142.85V26.75H149.82C150.28 26.75 150.71 26.86 151.12 27.07C151.54 27.28 151.87 27.58 152.11 27.95C152.35 28.32 152.48 28.72 152.48 29.15C152.48 29.63 152.36 30.06 152.11 30.46V30.45Z" fill="black"/>
<path d="M157.45 24V26.74V30.03V32.74V36.01V38.75H160.26H172.59V36.01H160.26V32.74H172.59V30.03H160.26V26.74H172.59V24H160.26H157.45Z" fill="black"/>
<path d="M179.36 26.74H185.5C185.96 26.74 186.36 26.9 186.69 27.22C187.02 27.54 187.19 27.93 187.19 28.38H190C190 27.58 189.8 26.85 189.39 26.19C188.99 25.52 188.44 24.98 187.75 24.59C187.07 24.2 186.32 24 185.5 24H179.36C178.54 24 177.78 24.2 177.09 24.59C176.41 24.98 175.87 25.52 175.47 26.19C175.07 26.85 174.86 27.58 174.86 28.38C174.86 29.18 175.06 29.9 175.47 30.57C175.87 31.23 176.41 31.76 177.09 32.15C177.78 32.54 178.54 32.74 179.36 32.74H185.53C185.99 32.74 186.38 32.9 186.7 33.22C187.03 33.53 187.2 33.91 187.2 34.36C187.2 34.81 187.03 35.2 186.7 35.52C186.38 35.84 185.99 36 185.53 36H179.36C178.9 36 178.5 35.84 178.17 35.52C177.84 35.2 177.67 34.81 177.67 34.36H174.86C174.86 35.16 175.06 35.9 175.47 36.57C175.87 37.23 176.41 37.76 177.09 38.15C177.78 38.54 178.54 38.74 179.36 38.74H185.53C186.34 38.74 187.08 38.54 187.76 38.15C188.45 37.76 189 37.23 189.4 36.57C189.8 35.9 190.01 35.17 190.01 34.38C190.01 33.59 189.81 32.87 189.4 32.21C189 31.54 188.45 31 187.76 30.61C187.08 30.22 186.34 30.02 185.53 30.02H179.36C178.9 30.02 178.5 29.86 178.17 29.54C177.84 29.22 177.67 28.83 177.67 28.38C177.67 27.93 177.84 27.54 178.17 27.22C178.5 26.9 178.9 26.74 179.36 26.74Z" fill="black"/>
<path fill-rule="evenodd" clip-rule="evenodd" d="M0 0H39.73V24.68L24.17 8.96L22.06 6.83L19.95 8.96L11.57 17.42L12.03 17.88L14.14 20.01L16.25 17.88L19.95 14.14L22.06 12.01L24.17 14.14L39.73 29.86V39.72H0V34.25L3.7 30.51L7.23 26.94L9.34 24.81L11.46 26.94L12.7 28.19L24.18 39.72H29.33L26.34 36.72L15.26 25.59L11.9 22.21L11.44 21.75L9.34 19.61L7.23 21.74L1.13 27.93L0 29.08V0Z" fill="#2859FE"/>
</svg>

<svg xmlns="http://www.w3.org/2000/svg" width="197" height="40" fill="none" xmlns:v="https://vecta.io/nano"><path d="M55.81 9.86h12.33V7.19H55.81V3.96h12.33V1.27H55.81 53v2.69 3.23 2.67 5.89h2.81V9.86zm17.83 5.13c1.17.68 2.43 1.01 3.78 1.01a7.36 7.36 0 0 0 3.76-1.01c1.17-.68 2.09-1.59 2.77-2.73a7.1 7.1 0 0 0 1.04-3.74 7.1 7.1 0 0 0-1.04-3.74c-.68-1.14-1.6-2.05-2.77-2.73-1.15-.68-2.41-1.01-3.76-1.01a7.46 7.46 0 0 0-3.78 1.01c-1.15.68-2.08 1.59-2.77 2.73-.68 1.14-1.02 2.39-1.02 3.74s.34 2.6 1.02 3.74a7.79 7.79 0 0 0 2.77 2.73zm-.32-8.83c.43-.72 1.01-1.28 1.73-1.7.72-.43 1.51-.64 2.38-.64a4.47 4.47 0 0 1 2.36.64c.74.41 1.31.98 1.73 1.7.43.72.65 1.5.65 2.36s-.22 1.64-.65 2.36a4.68 4.68 0 0 1-1.73 1.72 4.7 4.7 0 0 1-2.36.62c-.85 0-1.66-.21-2.38-.62-.72-.43-1.3-1-1.73-1.72-.42-.72-.63-1.5-.63-2.36s.21-1.64.63-2.36zm16.21 5.33h4.97l4.52 4.26h2.83v-1.08l-3.65-3.46a6.26 6.26 0 0 0 .97-.41 5.28 5.28 0 0 0 1.95-1.86c.49-.79.74-1.64.74-2.57s-.25-1.77-.74-2.54c-.48-.79-1.12-1.41-1.95-1.86a5.31 5.31 0 0 0-2.68-.7h-9.77v14.48h2.81v-4.26h0zm0-7.53h6.96a2.8 2.8 0 0 1 1.3.31c.42.21.75.5.99.87.25.36.37.75.37 1.18a2.28 2.28 0 0 1-.37 1.28c-.24.37-.58.67-.99.89-.4.22-.84.33-1.3.33h-6.96V3.96zm29.19 11.79v-2.69h-12.33v-3.2h12.33V7.19h-12.33V3.96h12.33V1.27h-12.33-2.81v2.69 3.23 2.67 3.2 2.69h2.81 12.33zm6.22 0h6.16a4.39 4.39 0 0 0 2.23-.58c.69-.39 1.24-.9 1.64-1.55a4.09 4.09 0 0 0 .61-2.15 3.91 3.91 0 0 0-.61-2.13 4.34 4.34 0 0 0-1.64-1.57 4.39 4.39 0 0 0-2.23-.58h-6.16c-.46 0-.86-.16-1.19-.48s-.5-.7-.5-1.14.16-.82.5-1.14c.33-.32.73-.48 1.19-.48h6.14c.46 0 .86.16 1.19.48s.5.7.5 1.14h2.81c0-.79-.2-1.5-.61-2.15a4.34 4.34 0 0 0-1.64-1.57c-.68-.39-1.43-.58-2.25-.58h-6.14c-.82 0-1.58.19-2.27.58-.68.39-1.22.91-1.62 1.57a4.03 4.03 0 0 0-.6 2.15c0 .78.2 1.49.6 2.15.4.65.94 1.17 1.62 1.55.69.39 1.45.58 2.27.58h6.16a1.59 1.59 0 0 1 1.17.48c.33.3.5.68.5 1.12s-.17.82-.5 1.14a1.59 1.59 0 0 1-1.17.48h-6.16c-.46 0-.86-.16-1.19-.48s-.5-.7-.5-1.14h-2.81a4.1 4.1 0 0 0 .6 2.17c.4.65.94 1.17 1.62 1.55.69.39 1.45.58 2.27.58h.01zm15.81-14.48h-2.81v14.48h2.81V1.27zM158.28 16V8.14h-7.03v2.48h4.43c0 .88-.41 1.59-1.23 2.13-.82.52-1.89.79-3.2.79-.91 0-1.79-.23-2.66-.7-.85-.48-1.54-1.11-2.08-1.88-.53-.79-.79-1.62-.78-2.5.01-.95.26-1.81.73-2.57.49-.76 1.15-1.35 1.99-1.78s1.77-.64 2.79-.64a7.6 7.6 0 0 1 2.85.54c.94.34 1.77.89 2.51 1.63l1.66-1.97c-.97-.9-2.06-1.57-3.29-2.03a9.89 9.89 0 0 0-3.74-.64 8.62 8.62 0 0 0-4.07.99c-1.26.65-2.25 1.54-2.98 2.69-.74 1.13-1.1 2.39-1.1 3.76s.37 2.63 1.1 3.79c.73 1.14 1.72 2.05 2.96 2.73 1.25.68 2.62 1.02 4.09 1.03 1.41 0 2.65-.26 3.72-.79l.71-.41v1.19h2.59l.03.02zm4.53-6.23h9.52v5.98h2.81V9.77 7.1 1.27h-2.81V7.1h-9.52V1.27H160V7.1v2.67 5.98h2.81V9.77zm23.03-8.5h-2.81-6.17v2.69h6.17v11.79h2.81V3.96H192V1.27h-6.16zM60.58 35.7L54.56 24H53v3.08l6.01 11.67h3.14l5.99-11.67V24h-1.56l-6 11.7zM70.41 24v2.74 3.29 2.71 3.27 2.74h2.81 12.33v-2.74H73.22v-3.27h12.33v-2.71H73.22v-3.29h12.33V24H73.22h-2.81zm29.74 10.58L90.63 24h-2.81v14.75h2.81v-10.6l9.52 10.6h2.81V24h-2.81v10.58zM111.39 24h-6.17v2.74h6.17v12.01h2.81V26.74h6.17V24h-6.17-2.81zm23.57 7.63c0 .83-.22 1.6-.65 2.32a4.58 4.58 0 0 1-1.73 1.71 4.82 4.82 0 0 1-2.38.61 4.82 4.82 0 0 1-2.38-.61 4.71 4.71 0 0 1-1.75-1.71 4.52 4.52 0 0 1-.63-2.32V24h-2.81v7.63a7.12 7.12 0 0 0 1.02 3.71 7.52 7.52 0 0 0 2.75 2.68c1.17.66 2.44.99 3.81.99s2.63-.33 3.79-.99c1.17-.66 2.09-1.55 2.77-2.68.68-1.14 1.02-2.37 1.02-3.71V24h-2.81v7.63h-.02zm19.49.19a4.9 4.9 0 0 0 .73-2.61c0-.94-.24-1.8-.73-2.59a5.23 5.23 0 0 0-1.95-1.9 5.23 5.23 0 0 0-2.68-.72h-9.78v14.75h2.81v-4.34h4.98l4.52 4.34h2.83v-1.1l-3.65-3.52c.33-.11.66-.24.97-.42a5.23 5.23 0 0 0 1.95-1.9v.01zm-2.34-1.37c-.24.38-.58.68-.99.91-.4.22-.84.34-1.3.34h-6.97v-4.95h6.97c.46 0 .89.11 1.3.32a2.49 2.49 0 0 1 .99.88c.24.37.37.77.37 1.2 0 .48-.12.91-.37 1.31v-.01zm5.34-6.45v2.74 3.29 2.71 3.27 2.74h2.81 12.33v-2.74h-12.33v-3.27h12.33v-2.71h-12.33v-3.29h12.33V24h-12.33-2.81zm21.91 2.74h6.14c.46 0 .86.16 1.19.48s.5.71.5 1.16H190c0-.8-.2-1.53-.61-2.19a4.42 4.42 0 0 0-1.64-1.6c-.68-.39-1.43-.59-2.25-.59h-6.14c-.82 0-1.58.2-2.27.59a4.44 4.44 0 0 0-1.62 1.6 4.15 4.15 0 0 0-.61 2.19c0 .8.2 1.52.61 2.19.4.66.94 1.19 1.62 1.58.69.39 1.45.59 2.27.59h6.17a1.59 1.59 0 0 1 1.17.48c.33.31.5.69.5 1.14s-.17.84-.5 1.16a1.59 1.59 0 0 1-1.17.48h-6.17c-.46 0-.86-.16-1.19-.48s-.5-.71-.5-1.16h-2.81c0 .8.2 1.54.61 2.21.4.66.94 1.19 1.62 1.58.69.39 1.45.59 2.27.59h6.17a4.4 4.4 0 0 0 2.23-.59c.69-.39 1.24-.92 1.64-1.58.4-.67.61-1.4.61-2.19a4.02 4.02 0 0 0-.61-2.17 4.42 4.42 0 0 0-1.64-1.6 4.4 4.4 0 0 0-2.23-.59h-6.17c-.46 0-.86-.16-1.19-.48s-.5-.71-.5-1.16.17-.84.5-1.16.73-.48 1.19-.48h0z" fill="#000"/><path fill-rule="evenodd" d="M0 0h39.73v24.68L24.17 8.96l-2.11-2.13-2.11 2.13-8.38 8.46.46.46 2.11 2.13 2.11-2.13 3.7-3.74 2.11-2.13 2.11 2.13 15.56 15.72v9.86H0v-5.47l3.7-3.74 3.53-3.57 2.11-2.13 2.12 2.13 1.24 1.25 11.48 11.53h5.15l-2.99-3-11.08-11.13-3.36-3.38-.46-.46-2.1-2.14-2.11 2.13-6.1 6.19L0 29.08V0z" fill="#00dd59"/></svg>
